!!!OTL: ICH HAB MEIN SACH AUF NICHTS GESTELLT
!!!ARE: Europa, Mitteleuropa, Deutschland
!!!SCT: B0308
!!!YEM: Copyright 1995, estate of Helmut Schaffrath.
**kern
*ICvox
*Ivox
*M6/8
*k[f#]
*G:
{8d
=1
8.g
16f#
8g
4a
8a
=2
4b
8cc
4dd
8gg
=3
2dd
8r}
{8d
=4
8.g
16f#
8g
4a
8a
=5
4b
8cc
4dd
8gg
=6
2dd
8r}
{8dd
=7
4dd
8dd#
4ee
8b
=8
4cc
8cc#
4dd}
{8cc
=9
8.b
16a
8b
4cc
8a
=10
8.b
16a
8b
4cc}
{8a
=11
8dd
8gg
8g
8.b
16cc
8a
=12
4g
4.r}
==
!!!AGN: Geselligkeits -, Trink - Lied, Freude
!!!ONB: ESAC (Essen Associative Code) Database: BOEHME
!!!AMT: compound duple
!!!AIN: vox
!!!EED: Helmut Schaffrath
!!!EEV: 1.0
*-
